X:0240
T:Cotillon.
N:final c is left natural in the book
M:2/4
L:1/16
Q:1/4=120
P:ABA % Aird prints a da capo
I: :: || DC
Z:Jack Campin * www.campin.me.uk * 2009
K:G
P:A
G2G2`G2G2|ABcA B2G2|gdBG A2Bc| B2A2``B2G2|\
G2G2`G2G2|ABcA B2G2|gdcB A2Bc| B2A2  G4 :|
P:B
B2^c2d2d2|e2e2 f4  |e2g2 f2ed|^c2d2``e2A2|\
B2^c2d2d2|e2e2 f4  |e2g2 f2ed| fed^c d4 |]

